images/email.svg

<svg xmlns="http://www.w3.org/2000/svg" width="256.3" height="256" viewBox="210.8 444 256.3 256" enable-background="new 210.8 444 256.3 256"><style type="text/css">.st0{fill:#913123;}</style><circle cx="338.8" cy="572" r="128"/><path class="st0" d="M240.3 627.1v-110.3c0-.1.2-1.3.6-3.6l64.9 55.5-64.7 62.3c-.5-1.8-.8-3.1-.8-3.9zm8.6-121.6c.9-.4 2-.6 3.3-.6h174.8c1.1 0 2.3.2 3.4.6l-65.1 55.7-8.6 6.9-17 14-17-14-8.6-6.9-65.2-55.7zm.2 132.9l65.3-62.6 25.3 20.5 25.3-20.5 65.3 62.6c-1 .4-2.1.6-3.3.6h-174.8c-1 0-2.1-.2-3.1-.6zm124.5-69.7l64.7-55.5c.4 1.1.6 2.4.6 3.6v110.3c0 1.1-.2 2.4-.6 3.8l-64.7-62.2z"/></svg>

<?xml version="1.0" encoding="utf-8"?>
<!-- Generator: Adobe Illustrator 19.1.0, SVG Export Plug-In . SVG Version: 6.00 Build 0)  -->
<!DOCTYPE svg PUBLIC "-//W3C//DTD SVG 1.1//EN" "http://www.w3.org/Graphics/SVG/1.1/DTD/svg11.dtd">
<svg version="1.1" id="Layer_1" xmlns="http://www.w3.org/2000/svg" xmlns:xlink="http://www.w3.org/1999/xlink" x="0px" y="0px"
	 width="256.3px" height="256px" viewBox="210.8 444 256.3 256" style="enable-background:new 210.8 444 256.3 256;"
	 xml:space="preserve">
<style type="text/css">
	.st0{fill:#913123;}
</style>
<circle cx="338.8" cy="572" r="128"/>
<path class="st0" d="M240.3,627.1V516.8c0-0.1,0.2-1.3,0.6-3.6l64.9,55.5L241.1,631C240.6,629.2,240.3,627.9,240.3,627.1z
	 M248.9,505.5c0.9-0.4,2-0.6,3.3-0.6H427c1.1,0,2.3,0.2,3.4,0.6l-65.1,55.7l-8.6,6.9l-17,14l-17-14l-8.6-6.9L248.9,505.5z
	 M249.1,638.4l65.3-62.6l25.3,20.5l25.3-20.5l65.3,62.6c-1,0.4-2.1,0.6-3.3,0.6H252.2C251.2,639,250.1,638.8,249.1,638.4z
	 M373.6,568.7l64.7-55.5c0.4,1.1,0.6,2.4,0.6,3.6v110.3c0,1.1-0.2,2.4-0.6,3.8L373.6,568.7z"/>
</svg>
